X: 15779
T: Good Ship Halton, The
R: jig
M: 6/8
K: Fmajor
|:GAC DFc|AcA GFC|EFC DFG|GFG Acd|
_eGd Gcd|_EBD ADG|FDC c2B|1 Acd GAC:|2 Acd G3||
|:F3 FDC|CDF GAE|FED CDF|GFG Acd|
_eGf Fg_E|BDA DGD|FDC c2B|1 Acd GAC:|2 Acd G3||

